!!!OTL: ZWISCHEN BERG UND TIEFEM THAL
!!!ARE: Europa, Mitteleuropa, Deutschland
!!!SCT: E0170
!!!YEM: Copyright 1995, estate of Helmut Schaffrath.
**kern
*ICvox
*Ivox
*M3/4
*k[f#]
*G:
=1
{8.d
16d
4g
4b
=2
8.b
16a
8.a
16g
4a}
=3
{8d
8f#
4a
4cc
=4
4cc
4b
4r}
=5
{8.dd
16cc
4b
4dd
=6
8.dd
16cc
8.cc
16b
4cc}
=7
{8.cc
16b
4a
4cc
=8
8.cc
16b
8.b
16a
4b}
=9
{8g
8b
4dd
8b
8g
=10
4a
4g
4r}
=11
{8.dd
16cc
4b
4dd
=12
8.dd
16cc
8.cc
16b
4cc}
=13
{8.cc
16b
4a
4cc
=14
8.cc
16b
8.b
16a
4b}
=15
{8g
8b
4dd
8b
8g
=16
4a
4g
4r}
==
!!!AGN: erzaehlendes Volks - Lied, Sage, Tier - Maerchen, Scherz     Ballade ?
!!!ONB: ESAC (Essen Associative Code) Database: ERK1
!!!AMT: simple triple
!!!AIN: vox
!!!EED: Helmut Schaffrath
!!!EEV: 1.0
*-
!!!title: @{OTL} [@{SCT}]
